X: 1
T: Roberta's Reel
C: Jerry Holland
H: \251 fiddlesticksmusic.com, SOCAN
F: http://www.jerryholland.com/tunes/robertasreel.gif
R: reel
Z: 2010 John Chambers <jc:trillian.mit.edu>
M: C|
L: 1/8
K: A
f |\
afec eAAB | c2BA BFFA | afeA A/A/A ce | f2ec Befg |
afec eAAB | c2BA BFFA | EFEC EFAc     | ecdB cAA :|
|: F |\
E2DF EA,A,C | EFAc BFFA | FEDF EA,A,C | EdcB cAAF |
FEDF EA,A,C | EFAc BFFB | cBcA B2AG   | FAEF CA,A, :|

%%sep 1 1 500

